Newaita-dark/actions/22/edit-find.svg

<?xml version="1.0" encoding="UTF-8"?>
<svg xmlns="http://www.w3.org/2000/svg" xmlns:xlink="http://www.w3.org/1999/xlink" width="22pt" height="22pt" viewBox="0 0 22 22" version="1.1">
<g id="surface1">
<path style=" stroke:none;fill-rule:nonzero;fill:rgb(74.117649%,74.117649%,74.117649%);fill-opacity:1;" d="M 8.1875 1.082031 C 4.15625 1.082031 0.910156 4.328125 0.910156 8.359375 C 0.910156 12.390625 4.15625 15.636719 8.1875 15.636719 C 12.21875 15.636719 15.464844 12.390625 15.464844 8.359375 C 15.464844 4.328125 12.21875 1.082031 8.1875 1.082031 Z M 8.1875 2.445312 C 11.460938 2.445312 14.097656 5.082031 14.097656 8.359375 C 14.097656 11.632812 11.460938 14.269531 8.1875 14.269531 C 4.910156 14.269531 2.273438 11.632812 2.273438 8.359375 C 2.273438 5.082031 4.910156 2.445312 8.1875 2.445312 Z M 8.1875 2.445312 "/>
<path style=" stroke:none;fill-rule:nonzero;fill:rgb(74.117649%,74.117649%,74.117649%);fill-opacity:1;" d="M 11.824219 13.359375 L 13.109375 12.074219 L 13.753906 12.71875 L 15.363281 14.324219 L 16.003906 14.96875 L 14.71875 16.253906 L 14.074219 15.613281 L 12.46875 14.003906 Z M 11.824219 13.359375 "/>
<path style=" stroke:none;fill-rule:nonzero;fill:rgb(55.29412%,43.137255%,38.82353%);fill-opacity:1;" d="M 13.675781 15.371094 L 15.121094 13.925781 C 15.429688 13.613281 15.972656 13.648438 16.328125 14.003906 L 20.1875 17.863281 C 20.542969 18.21875 20.578125 18.757812 20.265625 19.070312 L 18.820312 20.515625 C 18.507812 20.828125 17.96875 20.792969 17.613281 20.4375 L 13.753906 16.578125 C 13.398438 16.222656 13.363281 15.679688 13.675781 15.371094 Z M 13.675781 15.371094 "/>
</g>
</svg>

<svg xmlns="http://www.w3.org/2000/svg" width="22pt" height="22pt" viewBox="0 0 22 22"><path d="M8.188 1.082A7.262 7.262 0 0 0 .91 8.359a7.262 7.262 0 0 0 7.277 7.278 7.262 7.262 0 0 0 7.278-7.278 7.262 7.262 0 0 0-7.277-7.277zm0 1.363a5.9 5.9 0 0 1 5.91 5.914 5.898 5.898 0 0 1-5.91 5.91 5.9 5.9 0 0 1-5.915-5.91 5.9 5.9 0 0 1 5.915-5.914zm0 0" fill="#bdbdbd"/><path d="M11.824 13.36l1.285-1.286.645.645 1.61 1.605.64.645-1.285 1.285-.645-.64-1.605-1.61zm0 0" fill="#bdbdbd"/><path d="M13.676 15.371l1.445-1.445c.309-.313.852-.278 1.207.078l3.86 3.86c.355.355.39.894.078 1.206l-1.446 1.446c-.312.312-.851.277-1.207-.078l-3.86-3.86c-.355-.355-.39-.898-.077-1.207zm0 0" fill="#8d6e63"/></svg>
